dist/img/EFood.svg

<svg width="102" height="25" viewBox="0 0 102 25" fill="none" xmlns="http://www.w3.org/2000/svg">
<path d="M1.366 24.292C1.146 24.292 0.959 24.215 0.805 24.061C0.651 23.907 0.574 23.72 0.574 23.5V2.01699C0.574 1.77499 0.64 1.57699 0.772 1.42299C0.926 1.26899 1.124 1.19199 1.366 1.19199H15.886C16.128 1.19199 16.326 1.26899 16.48 1.42299C16.634 1.57699 16.711 1.77499 16.711 2.01699V4.19499C16.711 4.43699 16.634 4.63499 16.48 4.78899C16.326 4.92099 16.128 4.98699 15.886 4.98699H5.029V10.828H15.16C15.402 10.828 15.6 10.905 15.754 11.059C15.908 11.191 15.985 11.378 15.985 11.62V13.666C15.985 13.908 15.908 14.106 15.754 14.26C15.6 14.392 15.402 14.458 15.16 14.458H5.029V20.497H16.15C16.392 20.497 16.59 20.574 16.744 20.728C16.898 20.882 16.975 21.08 16.975 21.322V23.5C16.975 23.742 16.898 23.94 16.744 24.094C16.59 24.226 16.392 24.292 16.15 24.292H1.366Z" fill="#FF6838"/>
<path d="M23.5443 24.292C23.3243 24.292 23.1373 24.215 22.9833 24.061C22.8293 23.907 22.7523 23.72 22.7523 23.5V2.01699C22.7523 1.77499 22.8183 1.57699 22.9503 1.42299C23.1043 1.26899 23.3023 1.19199 23.5443 1.19199H37.8663C38.1083 1.19199 38.3063 1.26899 38.4603 1.42299C38.6143 1.57699 38.6913 1.77499 38.6913 2.01699V4.32699C38.6913 4.56899 38.6143 4.76699 38.4603 4.92099C38.3063 5.05299 38.1083 5.11899 37.8663 5.11899H27.2733V11.389H37.2063C37.4483 11.389 37.6463 11.466 37.8003 11.62C37.9543 11.774 38.0313 11.972 38.0313 12.214V14.524C38.0313 14.766 37.9543 14.964 37.8003 15.118C37.6463 15.25 37.4483 15.316 37.2063 15.316H27.2733V23.5C27.2733 23.742 27.1963 23.94 27.0423 24.094C26.8883 24.226 26.6903 24.292 26.4483 24.292H23.5443ZM51.0934 24.622C48.5194 24.622 46.5284 23.962 45.1204 22.642C43.7124 21.3 42.9534 19.474 42.8434 17.164L42.8104 15.712L42.8434 14.26C42.9534 11.972 43.7234 10.157 45.1534 8.81499C46.5834 7.47299 48.5634 6.80199 51.0934 6.80199C53.6234 6.80199 55.6034 7.47299 57.0334 8.81499C58.4634 10.157 59.2334 11.972 59.3434 14.26C59.3654 14.524 59.3764 15.008 59.3764 15.712C59.3764 16.416 59.3654 16.9 59.3434 17.164C59.2334 19.474 58.4744 21.3 57.0664 22.642C55.6584 23.962 53.6674 24.622 51.0934 24.622ZM51.0934 21.355C52.2594 21.355 53.1614 20.992 53.7994 20.266C54.4374 19.518 54.7894 18.429 54.8554 16.999C54.8774 16.779 54.8884 16.35 54.8884 15.712C54.8884 15.074 54.8774 14.645 54.8554 14.425C54.7894 12.995 54.4374 11.917 53.7994 11.191C53.1614 10.443 52.2594 10.069 51.0934 10.069C49.9274 10.069 49.0254 10.443 48.3874 11.191C47.7494 11.917 47.3974 12.995 47.3314 14.425L47.2984 15.712L47.3314 16.999C47.3974 18.429 47.7494 19.518 48.3874 20.266C49.0254 20.992 49.9274 21.355 51.0934 21.355ZM72.2727 24.622C69.6987 24.622 67.7077 23.962 66.2997 22.642C64.8917 21.3 64.1327 19.474 64.0227 17.164L63.9897 15.712L64.0227 14.26C64.1327 11.972 64.9027 10.157 66.3327 8.81499C67.7627 7.47299 69.7427 6.80199 72.2727 6.80199C74.8027 6.80199 76.7827 7.47299 78.2127 8.81499C79.6427 10.157 80.4127 11.972 80.5227 14.26C80.5447 14.524 80.5557 15.008 80.5557 15.712C80.5557 16.416 80.5447 16.9 80.5227 17.164C80.4127 19.474 79.6537 21.3 78.2457 22.642C76.8377 23.962 74.8467 24.622 72.2727 24.622ZM72.2727 21.355C73.4387 21.355 74.3407 20.992 74.9787 20.266C75.6167 19.518 75.9687 18.429 76.0347 16.999C76.0567 16.779 76.0677 16.35 76.0677 15.712C76.0677 15.074 76.0567 14.645 76.0347 14.425C75.9687 12.995 75.6167 11.917 74.9787 11.191C74.3407 10.443 73.4387 10.069 72.2727 10.069C71.1067 10.069 70.2047 10.443 69.5667 11.191C68.9287 11.917 68.5767 12.995 68.5107 14.425L68.4777 15.712L68.5107 16.999C68.5767 18.429 68.9287 19.518 69.5667 20.266C70.2047 20.992 71.1067 21.355 72.2727 21.355ZM92.231 24.622C90.009 24.622 88.304 23.907 87.116 22.477C85.928 21.047 85.29 19.144 85.202 16.768L85.169 15.679L85.202 14.623C85.268 12.313 85.895 10.432 87.083 8.97999C88.293 7.52799 90.009 6.80199 92.231 6.80199C94.365 6.80199 96.059 7.52799 97.313 8.97999V1.65399C97.313 1.41199 97.39 1.22499 97.544 1.09299C97.698 0.938991 97.885 0.861991 98.105 0.861991H100.91C101.152 0.861991 101.339 0.938991 101.471 1.09299C101.625 1.22499 101.702 1.41199 101.702 1.65399V23.5C101.702 23.72 101.625 23.907 101.471 24.061C101.339 24.215 101.152 24.292 100.91 24.292H98.303C98.083 24.292 97.896 24.215 97.742 24.061C97.588 23.907 97.511 23.72 97.511 23.5V22.279C96.257 23.841 94.497 24.622 92.231 24.622ZM93.452 21.091C94.728 21.091 95.674 20.684 96.29 19.87C96.906 19.056 97.247 18.055 97.313 16.867C97.335 16.603 97.346 16.174 97.346 15.58C97.346 15.008 97.335 14.59 97.313 14.326C97.269 13.226 96.917 12.291 96.257 11.521C95.619 10.729 94.684 10.333 93.452 10.333C91.076 10.333 89.811 11.796 89.657 14.722L89.624 15.712L89.657 16.702C89.811 19.628 91.076 21.091 93.452 21.091Z" fill="#363853"/>
</svg>

<svg width="102" height="25" viewBox="0 0 102 25" fill="none" xmlns="http://www.w3.org/2000/svg"><path d="M1.366 24.292a.764.764 0 01-.561-.231.764.764 0 01-.231-.561V2.017a.88.88 0 01.198-.594.804.804 0 01.594-.231h14.52c.242 0 .44.077.594.231a.804.804 0 01.231.594v2.178c0 .242-.077.44-.231.594a.88.88 0 01-.594.198H5.029v5.841H15.16c.242 0 .44.077.594.231.154.132.231.319.231.561v2.046c0 .242-.077.44-.231.594a.88.88 0 01-.594.198H5.029v6.039H16.15c.242 0 .44.077.594.231a.804.804 0 01.231.594V23.5c0 .242-.077.44-.231.594a.88.88 0 01-.594.198H1.366z" fill="#FF6838"/><path d="M23.544 24.292a.764.764 0 01-.56-.231.764.764 0 01-.232-.561V2.017a.88.88 0 01.198-.594.804.804 0 01.594-.231h14.322c.242 0 .44.077.594.231a.804.804 0 01.231.594v2.31c0 .242-.077.44-.23.594a.88.88 0 01-.595.198H27.273v6.27h9.933c.242 0 .44.077.594.231a.804.804 0 01.231.594v2.31c0 .242-.077.44-.23.594a.88.88 0 01-.595.198h-9.933V23.5c0 .242-.077.44-.23.594a.88.88 0 01-.595.198h-2.904zm27.55.33c-2.575 0-4.566-.66-5.974-1.98-1.408-1.342-2.167-3.168-2.277-5.478l-.033-1.452.033-1.452c.11-2.288.88-4.103 2.31-5.445 1.43-1.342 3.41-2.013 5.94-2.013 2.53 0 4.51.671 5.94 2.013 1.43 1.342 2.2 3.157 2.31 5.445.022.264.033.748.033 1.452s-.01 1.188-.033 1.452c-.11 2.31-.869 4.136-2.277 5.478-1.408 1.32-3.399 1.98-5.973 1.98zm0-3.267c1.165 0 2.067-.363 2.705-1.089.638-.748.99-1.837 1.056-3.267.022-.22.033-.649.033-1.287 0-.638-.01-1.067-.033-1.287-.066-1.43-.418-2.508-1.056-3.234-.638-.748-1.54-1.122-2.706-1.122s-2.068.374-2.706 1.122c-.638.726-.99 1.804-1.056 3.234l-.033 1.287.033 1.287c.066 1.43.418 2.519 1.056 3.267.638.726 1.54 1.089 2.706 1.089zm21.179 3.267c-2.574 0-4.565-.66-5.973-1.98-1.408-1.342-2.167-3.168-2.277-5.478l-.033-1.452.033-1.452c.11-2.288.88-4.103 2.31-5.445 1.43-1.342 3.41-2.013 5.94-2.013 2.53 0 4.51.671 5.94 2.013 1.43 1.342 2.2 3.157 2.31 5.445.022.264.033.748.033 1.452s-.011 1.188-.033 1.452c-.11 2.31-.87 4.136-2.277 5.478-1.408 1.32-3.4 1.98-5.973 1.98zm0-3.267c1.166 0 2.068-.363 2.706-1.089.638-.748.99-1.837 1.056-3.267.022-.22.033-.649.033-1.287 0-.638-.011-1.067-.033-1.287-.066-1.43-.418-2.508-1.056-3.234-.638-.748-1.54-1.122-2.706-1.122s-2.068.374-2.706 1.122c-.638.726-.99 1.804-1.056 3.234l-.033 1.287.033 1.287c.066 1.43.418 2.519 1.056 3.267.638.726 1.54 1.089 2.706 1.089zm19.958 3.267c-2.222 0-3.927-.715-5.115-2.145-1.188-1.43-1.826-3.333-1.914-5.709l-.033-1.089.033-1.056c.066-2.31.693-4.191 1.881-5.643 1.21-1.452 2.926-2.178 5.148-2.178 2.134 0 3.828.726 5.082 2.178V1.654c0-.242.077-.429.231-.561a.764.764 0 01.561-.231h2.805c.242 0 .429.077.561.231.154.132.231.319.231.561V23.5c0 .22-.077.407-.231.561-.132.154-.319.231-.561.231h-2.607a.764.764 0 01-.561-.231.764.764 0 01-.231-.561v-1.221c-1.254 1.562-3.014 2.343-5.28 2.343zm1.221-3.531c1.276 0 2.222-.407 2.838-1.221.616-.814.957-1.815 1.023-3.003.022-.264.033-.693.033-1.287 0-.572-.011-.99-.033-1.254-.044-1.1-.396-2.035-1.056-2.805-.638-.792-1.573-1.188-2.805-1.188-2.376 0-3.641 1.463-3.795 4.389l-.033.99.033.99c.154 2.926 1.419 4.389 3.795 4.389z" fill="#363853"/></svg>
